!!!OTL: 75. Gas-nign
!!!Genre:	Gas-nign
!!!Mode:	Minor
!!!Listening/dance:	listening
!!!One_Mode:	no
**kern
*thru
*I"P1
*clefG2
*k[b-e-]
*g:
*M3/4
*>A
!LO:TX:a:i:t=G-minor
4d
=1
2g
8aL
(8qcc/
8b-J)
=2
2cc
8dd
(8qff/
8ee-J)
=3
4cc
(8qdd/
4cc)
(8b-L
8aJ)
=4
2g
4d
=5
2g
8aL
(8qcc/
8b-J)
=6
4cc
4gg
16ffLL
16ee-
16dd
16ccJJ
=7
4dd
(8qee-/
4dd)
(8qee-/
4dd)
=8
2dd
4dd
=9
8ffL
8ggJ
8ffL
8ee-J
8ddL
8ccJ
=10
*^
2gg	2ryy
4f	(20fLL
.	20g
.	20f
.	20en
.	20fJJ)
*v	*v
=11||
8b-L
8cc
8dd
8b-
(8qdd/
8cc)
8fJ
=12
2g
28fLL
28g
28a
28b-
28cc
28dd
28ee-JJ
=13
4.ff
8dd
16qqdd/LL
16qqff/JJ
20ee-LL
20dd
20cc
20b-
20aJJ
=14
4.b-
8f
8gL
8a-XJ
=15
4g
(8qa-X/
4g)
(8qa-/
4g)
*>A1
=16
2g
*>A
!LO:TX:a:i:t=G-minor
4d
=1
2g
8aL
(8qcc/
8b-J)
=2
2cc
8dd
(8qff/
8ee-J)
=3
4cc
(8qdd/
4cc)
(8b-L
8aJ)
=4
2g
4d
=5
2g
8aL
(8qcc/
8b-J)
=6
4cc
4gg
16ffLL
16ee-
16dd
16ccJJ
=7
4dd
(8qee-/
4dd)
(8qee-/
4dd)
=8
2dd
4dd
=9
8ffL
8ggJ
8ffL
8ee-J
8ddL
8ccJ
=10
*^
2gg	2ryy
4f	(20fLL
.	20g
.	20f
.	20en
.	20fJJ)
*v	*v
=11||
8b-L
8cc
8dd
8b-
(8qdd/
8cc)
8fJ
=12
2g
28fLL
28g
28a
28b-
28cc
28dd
28ee-JJ
=13
4.ff
8dd
16qqdd/LL
16qqff/JJ
20ee-LL
20dd
20cc
20b-
20aJJ
=14
4.b-
8f
8gL
8a-XJ
=15
4g
(8qa-X/
4g)
(8qa-/
4g)
*>A2
=17:|!
2.g
!!!Begin-Modulation
*g:
!LO:TX:a:i:t=G-minor
8f
8gL
8a-XJ
=39
4g
(8qa-X/
4g)
(8qa-/
4g)
=40
2.g
=:|!
*-
